X:34
T:Polonäs i Gm
R:Slängpolska
B:FMK - katalog MMD55 bild 74
Z:Nils L
N: Se även +
M:3/4
L:1/16
K:Gm
d4 cedc B2AG | D=E^FG AcBA B2AG | G4 c4 cedc | BAG^F G4 G,4 ::
gbag f2e2 d2c2 | dedc BcBA B2AG | gbag f2e2 d2c2 | dcBA G4 B,4 |
(dBFB) (dBFB) (dBFB) | (cAFA) (cAF)A (cAFA) | fgab c2e2 d2c2 | BAG^F G4 G,4 :|

